dist/images/services-icons/smad.svg

<svg width="48" height="48" viewBox="0 0 48 48" fill="none" xmlns="http://www.w3.org/2000/svg">
<circle cx="24" cy="24" r="23.5" fill="#FCFAF7" stroke="#BDA37E"/>
<path d="M24.2344 25.5618L25.2344 22.2285L26.2344 25.5618L25.2344 26.8952L24.2344 25.5618Z" fill="#BDA37E"/>
<path fill-rule="evenodd" clip-rule="evenodd" d="M34.9087 20.465C35.87 20.1766 36.5703 19.285 36.5703 18.2298V14.2298C36.5703 12.9412 35.5256 11.8965 34.237 11.8965C32.9483 11.8965 31.9036 12.9412 31.9036 14.2298V18.2298C31.9036 19.2886 32.6088 20.1827 33.5752 20.468C33.5807 21.2178 33.5903 21.9341 33.5994 22.6184V22.6192C33.632 25.0532 33.6591 27.0817 33.4816 28.7682C33.2304 31.1556 32.5883 32.6121 31.1598 33.4541C29.2402 34.5854 26.3347 34.9771 23.8893 34.6693C22.6716 34.5159 21.6306 34.1962 20.9149 33.7587C20.6258 33.582 20.405 33.3971 20.2446 33.2064C21.4605 33.138 22.6478 32.918 23.6133 32.5251C24.798 32.043 25.872 31.1926 25.903 29.8493C28.1648 29.5261 29.9036 27.581 29.9036 25.2298C29.9036 22.8788 28.1652 20.9339 25.9036 20.6104V16.6446H25.9017C25.903 16.6175 25.9036 16.5904 25.9036 16.5632C25.9036 14.7222 22.9188 13.2298 19.237 13.2298C15.5551 13.2298 12.5703 14.7222 12.5703 16.5632C12.5703 16.5904 12.571 16.6175 12.5723 16.6446H12.5703V29.7895C12.5703 31.1129 13.6805 31.9588 14.8567 32.4464C15.9505 32.9 17.3335 33.1528 18.7237 33.2148C18.9822 33.9236 19.5433 34.483 20.2195 34.8964C21.1522 35.4664 22.3957 35.8251 23.7228 35.9922C26.367 36.3251 29.5921 35.9257 31.8368 34.6027C33.8136 33.4377 34.5408 31.4436 34.8076 28.9077C34.9938 27.1388 34.9651 24.9863 34.932 22.5057C34.9232 21.8482 34.9142 21.1676 34.9087 20.465ZM34.237 13.2298C34.7892 13.2298 35.237 13.6775 35.237 14.2298V18.2298C35.237 18.7821 34.7892 19.2298 34.237 19.2298C33.6847 19.2298 33.237 18.7821 33.237 18.2298V14.2298C33.237 13.6775 33.6847 13.2298 34.237 13.2298ZM24.5703 16.5632C24.5703 16.7066 24.4194 17.1953 23.3547 17.7276C22.3698 18.2201 20.9158 18.5632 19.237 18.5632C17.5581 18.5632 16.1042 18.2201 15.1192 17.7276C14.0545 17.1953 13.9036 16.7066 13.9036 16.5632C13.9036 16.4198 14.0545 15.931 15.1192 15.3987C16.1042 14.9062 17.5581 14.5632 19.237 14.5632C20.9158 14.5632 22.3698 14.9062 23.3547 15.3987C24.4194 15.931 24.5703 16.4198 24.5703 16.5632ZM24.5703 18.5635C23.354 19.373 21.4178 19.8965 19.237 19.8965C19.0327 19.8965 18.8305 19.8919 18.6309 19.8829V31.8751C18.8341 31.8864 19.039 31.8933 19.2446 31.8957C20.6896 31.9121 22.0942 31.7038 23.1106 31.2901C24.1198 30.8794 24.5392 30.3678 24.5686 29.8489C22.3079 29.5247 20.5703 27.5802 20.5703 25.2298C20.5703 22.8788 22.3088 20.9339 24.5703 20.6104V18.5635ZM28.5703 25.2298C28.5703 27.0708 27.0779 28.5632 25.237 28.5632C23.396 28.5632 21.9036 27.0708 21.9036 25.2298C21.9036 23.3889 23.396 21.8965 25.237 21.8965C27.0779 21.8965 28.5703 23.3889 28.5703 25.2298Z" fill="#BDA37E"/>
<path d="M17.0705 19.7959C15.4 19.5925 14.5523 19.0223 13.6953 18.4863L13.6955 29.9402C14.5709 30.9587 15.1337 31.334 17.0705 31.736C17.0706 28.6554 17.0708 21.0172 17.0705 19.7959Z" fill="#FCFAF7"/>
</svg>

<svg width="48" height="48" fill="none" xmlns="http://www.w3.org/2000/svg"><circle cx="24" cy="24" r="23.5" fill="#FCFAF7" stroke="#BDA37E"/><path d="M24.234 25.562l1-3.334 1 3.334-1 1.333-1-1.333z" fill="#BDA37E"/><path fill-rule="evenodd" clip-rule="evenodd" d="M34.909 20.465a2.334 2.334 0 001.661-2.235v-4a2.333 2.333 0 00-4.666 0v4c0 1.059.705 1.953 1.671 2.238.006.75.015 1.466.024 2.15v.001c.033 2.434.06 4.463-.117 6.15-.252 2.387-.894 3.843-2.322 4.685-1.92 1.131-4.825 1.523-7.27 1.215-1.218-.153-2.26-.473-2.975-.91a2.715 2.715 0 01-.67-.553c1.215-.068 2.403-.288 3.368-.68 1.185-.483 2.259-1.333 2.29-2.677a4.668 4.668 0 000-9.239v-3.965h-.001l.002-.082c0-1.84-2.985-3.333-6.667-3.333s-6.667 1.492-6.667 3.333l.002.082h-.002V29.79c0 1.323 1.11 2.169 2.287 2.656 1.094.454 2.477.707 3.867.769.258.709.82 1.268 1.495 1.681.933.57 2.177.93 3.504 1.096 2.644.333 5.87-.066 8.114-1.39 1.977-1.164 2.704-3.158 2.97-5.694.187-1.77.158-3.922.125-6.402-.009-.658-.018-1.338-.023-2.041zm-.672-7.235a1 1 0 011 1v4a1 1 0 01-2 0v-4a1 1 0 011-1zm-9.667 3.333c0 .144-.15.632-1.215 1.165-.985.492-2.44.835-4.118.835-1.679 0-3.133-.343-4.118-.835-1.064-.533-1.215-1.021-1.215-1.165 0-.143.15-.632 1.215-1.164.985-.493 2.44-.836 4.118-.836 1.679 0 3.133.343 4.118.836 1.064.532 1.215 1.02 1.215 1.164zm0 2c-1.216.81-3.152 1.334-5.333 1.334-.204 0-.406-.005-.606-.014v11.992c.203.011.408.018.614.02 1.445.017 2.85-.191 3.866-.605 1.009-.41 1.428-.922 1.458-1.441a4.668 4.668 0 01.001-9.239v-2.046zm4 6.667a3.333 3.333 0 11-6.666 0 3.333 3.333 0 016.666 0z" fill="#BDA37E"/><path d="M17.07 19.796c-1.67-.203-2.518-.774-3.375-1.31V29.94c.876 1.019 1.439 1.394 3.375 1.796v-11.94z" fill="#FCFAF7"/></svg>
